!!!ONB: MCCC : IJH0459_05 : Extracted Monophonic Melody
!!!COM: Haydn, Joseph
!!!OPR: String Quartet in G major
!!!OMV: 5
!!!SCT: Hob.III:4 ; Op.1 No.4
!!!ODT: 1757///
**kern
*thru
*k[f#]
*G:
*clefF
*M2/4
4gg
16g
16f#
16g
16a
=1
8g
8g
8g
8g
=2
8cc
8b
8ee
8dd
=3
8cc
8b
4r
=4
4gg
16g
16f#
16g
16a
=5
8g
8g
8g
8g
=6
8cc
8b
8ee
8dd
=7
8ff#
8gg
8r
16bb
16cc#
=8
4cc#
8dd
16ee
16g
=9
4g
8f#
16bb
16cc#
=10
4cc#
8dd
16ee
16g
=11
4g
8f#
8dd
=12
16dd
16ff#
8ee
16ee
16gg
8ff#
=13
16ff#
16aa
8gg
16gg
16bb
16ee
16gg
=14
8ff#
24ddd
24ccc#
24bb
8aa
8aa
=15
8aa
16eee
16ccc#
16aa
16gg
16ee
16gg
=16
8ff#
24ddd
24ccc#
24bb
8aa
8aa
=17
8aa
16eee
16ccc#
16aa
16gg
16ee
16gg
=18
16ff#
16aa
16dd
16ee
4ee
=19
8dd
8f#
8g
8a
=20
16b
16a
16b
16cc#
8dd
8f#
=21
16g
16f#
16g
16a
8b
8e
=22
8f#
16e
16d
8a
8a
=23
4d
4r
=24
2dd
=25
2dd
=26
2dd
=27
2dd
=28
2dd
=29
2dd
=30
2dd[
=31
4dd]
16dd
32ee
32ff#
32gg
32aa
32bb
32ccc
=32
2ddd[
=33
2ddd]
=34
16ddd
16ccc
16bb
16ccc
8bb
8r
=35
16bb
16aa
16gg
16aa
8gg
8r
=36
16gg
16ff
16ee
16ff
8ff
8r
=37
4G
4ddd
=38
16ddd
16bb
16fff
16ddd
16fff
16ddd
16bb
16ff
=39
8ee
8ccc
8d
8b
=40
4c
8r
16ccc
16gg#
=41
8gg#
8aa
8r
16ccc
16ee
=42
8ee
8dd
8r
16bb
16ff#
=43
8ff#
8gg
8r
16bb
16dd
=44
8dd
8cc
8r
16aa
16cc
=45
8.b
16dd
16cc
16b
16a
16g
=46
4d
4r
=47
4gg
16g
16f#
16g
16a
=48
8g
8g
8g
8g
=49
8cc
8b
8ee
8dd
=50
8cc
8b
4r
=51
4gg
16g
16f#
16g
16a
=52
8g
8g
8g
8g
=53
8cc
8b
8ee
8dd
=54
8ff#
8gg
8r
16ee
16f#
=55
4f#
8g
16a
16c
=56
4c
8B
16ee
16f#
=57
4f#
8g
16a
16c
=58
4c
8B
8g
=59
16g
16b
8.a
16cc
8b
=60
16b
16dd
8.cc
16ee
16a
16cc
=61
8b
24gg
24ff#
24ee
8dd
8dd
=62
8dd
16aa
16ff#
16dd
16cc
16a
16cc
=63
8b
24gg
24ff#
24ee
8dd
8dd
=64
8dd
16aa
16ff#
16dd
16cc
16a
16cc
=65
16b
16dd
16g
16b
4a
=66
8g
8B
8c
8d
=67
16e
16d
16e
16f#
8g
8B
=68
16c
16B
16c
16d
8e
8A
=69
8B
16A
16G
8d
8d
=70
4G
4r
=71
8r
8bb
8r
8dd#
=72
8r
8ee
8r
8cc
=73
8r
8cc
8b
8a
=74
4g
4f#
=75
8r
8ee
8r
8gg
=76
8r
8ff#
8r
8aa
=77
8gg
8ee
8ff#
8dd#
=78
4ee
4r
=79
4gg
8dd
8r
=80
8ee
8r
16ccc
16aa
8ff#
=81
4gg
8dd
8r
=82
8ee
8r
16ccc
16aa
8ff#
=83
8gg
8b
8cc
8dd
=84
4g
4r
=85
4r
4gg#
=86
16aa
16gg#
16aa
16bb
8ccc
8r
=87
4r
4ff#
=88
16gg
16ff#
16gg
16aa
8bb
8bb[
=89
8bb]
16aa
16gg
8ff#
8ee
=90
8dd#
8b
4r
=91
8r
8bb
8r
8dd#
=92
8r
8ee
8r
8cc
=93
8r
8cc
8b
8a
=94
4g
4f#
=95
8r
8ee
8r
8gg
=96
8r
8ff#
8r
8aa
=97
8gg
8ee
8ff#
8dd#
=98
4ee
4r
==
*-
